X:1
T:Title
%%score { ( 1 3 ) | ( 2 4 ) }
L:1/8
Q:1/4=114
M:6/4
K:A
V:1 treble nm="Grand Piano"
V:3 treble 
V:2 bass 
V:4 bass 
V:1
 F4 F2 [FA]4 [FA]2 | [^EB]4 [EB]2 [FA]6 | .[Fd]6 z6 | E2- [Ec]2 B2 [CA]6 | %4
w: S.~M.~Bixby * * *||||
 [DF]4 [DF]2 [FA]4 [FA]2 | d2 e2 [Fd]2 c4 B2 | d2 c2 [D^EB]2 [DFA]4 [Fd]2 | .[A,DF]4 [=G,CE]2 D6 | %8
w: ||||
 A4 A2 =G4 G2 | B4 B2 A6 | d2- [Ed]2 [^Ed]2 .[Fd]4 [A,DF]2 | .[A,CA]4[K:bass] [=G,CE]2 [F,D]6 |] %12
w: ||||
V:2
 [D,A,D]4 [D,A,D]2 [D,A,]4 [D,A,]2 | [D,G,]4 [D,G,]2 [D,A,]6 | z6 .A,6 | z2 A,2 [E,G,D]2 [A,,A,]6 | %4
 [D,A,]4 [D,A,]2 [D,A,]4 [D,A,]2 | [D,A,]4 [D,A,]2 [^A,E]4 [B,D]2 | [G,E]2- [G,CE]2 G,2 A,4 A,2 | %7
 z2 =G2 A,,2 [D,F,]6 | [D,F,D]4 [D,F,D]2 [D,B,D]4 [D,B,D]2 | [D,=G,D]4 [D,G,D]2 [D,F,D]6 | %10
 [B,,=G,]4 [^A,,^G,]2 z2 A2 =A,,2 | z2 =G2 A,,2 D,6 |] %12
V:3
 x12 | x12 | z2 F,2 [Ed]2 [Ec]2 [FB]2 [B,FA]2 | .[CA]6 z6 | x12 | .F6 z6 | x12 | x12 | x12 | x12 | %10
 .D6 z6 | x4[K:bass] x8 |] %12
V:4
 x12 | x12 | .[B,,B,]4 [B,,G,]2 C,2 D,2 ^D,2 | .E,6 z6 | x12 | z6 =G,6 | .B,6 z6 | .A,,6 z6 | x12 | %9
 x12 | z6 .[=A,,A,]6 | .A,,6 z6 |] %12

